material/.icons/material/card-bulleted.svg

<svg xmlns="http://www.w3.org/2000/svg" viewBox="0 0 24 24"><path d="M20 4a2 2 0 012 2v12a2 2 0 01-2 2H4a2 2 0 01-2-2V6a2 2 0 012-2h16m-9 9H9v2h2v-2m8 0h-6v2h6v-2M7 9H5v2h2V9m12 0H9v2h10V9z"/></svg>

<?xml version="1.0" encoding="UTF-8"?><!DOCTYPE svg PUBLIC "-//W3C//DTD SVG 1.1//EN" "http://www.w3.org/Graphics/SVG/1.1/DTD/svg11.dtd"><svg xmlns="http://www.w3.org/2000/svg" xmlns:xlink="http://www.w3.org/1999/xlink" version="1.1" id="mdi-card-bulleted" width="24" height="24" viewBox="0 0 24 24"><path d="M20,4A2,2 0 0,1 22,6V18A2,2 0 0,1 20,20H4A2,2 0 0,1 2,18V6A2,2 0 0,1 4,4H20M11,13H9V15H11V13M19,13H13V15H19V13M7,9H5V11H7V9M19,9H9V11H19V9Z" /></svg>
